assets/components_previews/media/light/image.svg

<svg xmlns="http://www.w3.org/2000/svg" width="320" height="232" fill="none" viewBox="0 0 320 232"><path fill="#AA99EC" fill-rule="evenodd" d="M159.876 98.5h.248c3.627 0 6.518 0 8.785.305 2.341.314 4.264.981 5.784 2.502 1.521 1.521 2.188 3.444 2.502 5.784.305 2.267.305 5.158.305 8.785v.248c0 3.627 0 6.518-.305 8.785-.314 2.341-.981 4.264-2.502 5.784-1.52 1.521-3.443 2.188-5.784 2.502-2.267.305-5.158.305-8.785.305h-.248c-3.627 0-6.518 0-8.785-.305-2.34-.314-4.263-.981-5.784-2.502s-2.188-3.443-2.502-5.784c-.305-2.267-.305-5.158-.305-8.785v-.248c0-3.627 0-6.518.305-8.785.314-2.34.981-4.263 2.502-5.784s3.444-2.188 5.784-2.502c2.267-.305 5.158-.305 8.785-.305" clip-rule="evenodd" opacity=".4"/><path fill="#AA99EC" fill-rule="evenodd" d="M167.5 105.167a3.333 3.333 0 1 0 0 6.665 3.333 3.333 0 0 0 0-6.665m3.136 18.75a11.4 11.4 0 0 1 3.262.477l-.009.071c-.265 1.971-.758 3.073-1.556 3.871s-1.9 1.291-3.871 1.556q-.657.088-1.415.141a18.1 18.1 0 0 0-2.713-4.337c2.069-1.2 4.194-1.788 6.302-1.779m-24.777-3.316c.033 1.52.101 2.784.246 3.864.265 1.971.758 3.073 1.556 3.871s1.9 1.291 3.871 1.556c2.019.271 4.686.275 8.465.275 1.64 0 3.071-.001 4.33-.024-1.182-2.262-2.967-4.288-5.254-5.897-3.469-2.441-7.848-3.747-12.357-3.658h-.028q-.415-.002-.829.013" clip-rule="evenodd"/></svg>

<svg width="320" height="232" viewBox="0 0 320 232" fill="none" xmlns="http://www.w3.org/2000/svg">
<path opacity="0.4" fill-rule="evenodd" clip-rule="evenodd" d="M159.876 98.5H160.124C163.751 98.5 166.642 98.4999 168.909 98.8047C171.25 99.1194 173.173 99.7863 174.693 101.307C176.214 102.828 176.881 104.751 177.195 107.091C177.5 109.358 177.5 112.249 177.5 115.876V116.124C177.5 119.751 177.5 122.642 177.195 124.909C176.881 127.25 176.214 129.173 174.693 130.693C173.173 132.214 171.25 132.881 168.909 133.195C166.642 133.5 163.751 133.5 160.124 133.5H159.876C156.249 133.5 153.358 133.5 151.091 133.195C148.751 132.881 146.828 132.214 145.307 130.693C143.786 129.173 143.119 127.25 142.805 124.909C142.5 122.642 142.5 119.751 142.5 116.124V115.876C142.5 112.249 142.5 109.358 142.805 107.091C143.119 104.751 143.786 102.828 145.307 101.307C146.828 99.7863 148.751 99.1194 151.091 98.8047C153.358 98.4999 156.249 98.5 159.876 98.5Z" fill="#AA99EC"/>
<path fill-rule="evenodd" clip-rule="evenodd" d="M167.5 105.167C165.659 105.167 164.167 106.659 164.167 108.5C164.167 110.341 165.659 111.833 167.5 111.833C169.341 111.833 170.833 110.341 170.833 108.5C170.833 106.659 169.341 105.167 167.5 105.167ZM170.636 123.917C171.722 123.916 172.817 124.074 173.898 124.394L173.889 124.465C173.624 126.436 173.131 127.538 172.333 128.336C171.535 129.134 170.433 129.627 168.462 129.892C168.023 129.951 167.553 129.997 167.047 130.033C166.364 128.483 165.45 127.025 164.334 125.696C166.403 124.496 168.528 123.908 170.636 123.917ZM145.859 120.601C145.892 122.121 145.96 123.385 146.105 124.465C146.37 126.436 146.863 127.538 147.661 128.336C148.459 129.134 149.561 129.627 151.532 129.892C153.551 130.163 156.218 130.167 159.997 130.167C161.637 130.167 163.068 130.166 164.327 130.143C163.145 127.881 161.36 125.855 159.073 124.246C155.604 121.805 151.225 120.499 146.716 120.588L146.688 120.588C146.412 120.587 146.135 120.591 145.859 120.601Z" fill="#AA99EC"/>
</svg>
